img/service/crown-2.svg

<svg width="16" height="16" viewBox="0 0 16 16" fill="none" xmlns="http://www.w3.org/2000/svg">
<path d="M11.1333 13.1533H4.86667C4.37334 13.1533 3.87334 12.8 3.70667 12.34L0.946674 4.61334C0.606674 3.64001 0.853341 3.19334 1.12001 2.99334C1.38667 2.79334 1.88667 2.67334 2.72667 3.27334L5.32667 5.13334C5.40667 5.18001 5.48001 5.20001 5.53334 5.18667C5.59334 5.16667 5.64001 5.11334 5.67334 5.02001L6.84667 1.89334C7.20001 0.960007 7.72001 0.820007 8.00001 0.820007C8.28001 0.820007 8.80001 0.960007 9.15334 1.89334L10.3267 5.02001C10.36 5.10667 10.4067 5.16667 10.4667 5.18667C10.5267 5.20667 10.6 5.18667 10.6733 5.12667L13.1133 3.38667C14.0067 2.74667 14.5267 2.87334 14.8133 3.08001C15.0933 3.29334 15.3533 3.76667 14.9867 4.80001L12.2933 12.34C12.1267 12.8 11.6267 13.1533 11.1333 13.1533ZM1.78667 3.87334C1.80001 3.96667 1.82667 4.10001 1.89334 4.27334L4.65334 12C4.68001 12.0667 4.80001 12.1533 4.86667 12.1533H11.1333C11.2067 12.1533 11.3267 12.0667 11.3467 12L14.04 4.46667C14.1333 4.21334 14.16 4.04001 14.1667 3.94001C14.0667 3.97334 13.9133 4.04667 13.6933 4.20667L11.2533 5.94667C10.92 6.18001 10.5267 6.25334 10.1733 6.14667C9.82001 6.04001 9.53334 5.76001 9.38667 5.38001L8.21334 2.25334C8.12667 2.02001 8.04667 1.90667 8.00001 1.85334C7.95334 1.90667 7.87334 2.02001 7.78667 2.24667L6.61334 5.37334C6.47334 5.75334 6.18667 6.03334 5.82667 6.14001C5.47334 6.24667 5.07334 6.17334 4.74667 5.94001L2.14667 4.08001C1.99334 3.97334 1.87334 3.90667 1.78667 3.87334Z" fill="#0F172A"/>
<path d="M11.6667 15.1667H4.33333C4.05999 15.1667 3.83333 14.94 3.83333 14.6667C3.83333 14.3934 4.05999 14.1667 4.33333 14.1667H11.6667C11.94 14.1667 12.1667 14.3934 12.1667 14.6667C12.1667 14.94 11.94 15.1667 11.6667 15.1667Z" fill="#0F172A"/>
<path d="M9.66666 9.83331H6.33333C6.05999 9.83331 5.83333 9.60665 5.83333 9.33331C5.83333 9.05998 6.05999 8.83331 6.33333 8.83331H9.66666C9.93999 8.83331 10.1667 9.05998 10.1667 9.33331C10.1667 9.60665 9.93999 9.83331 9.66666 9.83331Z" fill="#0F172A"/>
</svg>

<svg xmlns="http://www.w3.org/2000/svg" width="16" height="16" fill="none"><path fill="#0F172A" d="M11.133 13.153H4.867c-.494 0-.994-.353-1.16-.813L.947 4.613c-.34-.973-.094-1.42.173-1.62.267-.2.767-.32 1.607.28l2.6 1.86c.08.047.153.067.206.054.06-.02.107-.074.14-.167l1.174-3.127C7.2.96 7.72.82 8 .82s.8.14 1.153 1.073l1.174 3.127c.033.087.08.147.14.167.06.02.133 0 .206-.06l2.44-1.74c.894-.64 1.414-.514 1.7-.307.28.213.54.687.174 1.72l-2.694 7.54c-.166.46-.666.813-1.16.813Zm-9.346-9.28c.013.094.04.227.106.4L4.653 12c.027.067.147.153.214.153h6.266c.074 0 .194-.086.214-.153l2.693-7.533c.093-.254.12-.427.127-.527-.1.033-.254.107-.474.267l-2.44 1.74c-.333.233-.726.306-1.08.2-.353-.107-.64-.387-.786-.767L8.213 2.253a1.278 1.278 0 0 0-.213-.4 1.3 1.3 0 0 0-.213.394L6.613 5.373c-.14.38-.426.66-.786.767a1.249 1.249 0 0 1-1.08-.2l-2.6-1.86a1.84 1.84 0 0 0-.36-.207ZM11.667 15.167H4.333a.504.504 0 0 1-.5-.5c0-.274.227-.5.5-.5h7.334c.273 0 .5.226.5.5 0 .273-.227.5-.5.5Z"/><path fill="#0F172A" d="M9.667 9.833H6.333a.504.504 0 0 1-.5-.5c0-.273.227-.5.5-.5h3.334c.273 0 .5.227.5.5 0 .274-.227.5-.5.5Z"/></svg>
